src/apps/scalable/linuxmint-logo-neon.svg

<?xml version="1.0" encoding="UTF-8" standalone="no"?>
<svg
   width="64"
   height="64"
   version="1.1"
   viewBox="0 0 16.933 16.933"
   id="svg20"
   sodipodi:docname="linuxmint-logo-neon.svg"
   inkscape:version="1.1.2 (1:1.1+202202050950+0a00cf5339)"
   xmlns:inkscape="http://www.inkscape.org/namespaces/inkscape"
   xmlns:sodipodi="http://sodipodi.sourceforge.net/DTD/sodipodi-0.dtd"
   xmlns:xlink="http://www.w3.org/1999/xlink"
   xmlns="http://www.w3.org/2000/svg"
   xmlns:svg="http://www.w3.org/2000/svg">
  <sodipodi:namedview
     id="namedview22"
     pagecolor="#505050"
     bordercolor="#eeeeee"
     borderopacity="1"
     inkscape:pageshadow="0"
     inkscape:pageopacity="0"
     inkscape:pagecheckerboard="0"
     showgrid="false"
     inkscape:zoom="12.984375"
     inkscape:cx="32"
     inkscape:cy="31.961492"
     inkscape:window-width="2560"
     inkscape:window-height="1358"
     inkscape:window-x="0"
     inkscape:window-y="0"
     inkscape:window-maximized="1"
     inkscape:current-layer="g18" />
  <defs
     id="defs10">
    <filter
       id="filter1178"
       x="-0.047999482"
       y="-0.047999482"
       width="1.095999"
       height="1.095999"
       color-interpolation-filters="sRGB">
      <feGaussianBlur
         stdDeviation="0.30691668"
         id="feGaussianBlur2" />
    </filter>
    <linearGradient
       inkscape:collect="always"
       xlink:href="#linearGradient1265"
       id="linearGradient1267"
       x1="194.1302"
       y1="99.575188"
       x2="194.00735"
       y2="316.10852"
       gradientUnits="userSpaceOnUse"
       gradientTransform="matrix(0.0729035,0,0,0.0729035,-5.5309729,-6.6974287)" />
    <linearGradient
       inkscape:collect="always"
       id="linearGradient1265">
      <stop
         style="stop-color:#8fbcbb;stop-opacity:1"
         offset="0"
         id="stop1261" />
      <stop
         style="stop-color:#97b67c;stop-opacity:1"
         offset="1"
         id="stop1263" />
    </linearGradient>
  </defs>
  <g
     stroke-linecap="round"
     stroke-linejoin="round"
     id="g18">
    <rect
       x=".92604"
       y=".92604"
       width="15.081"
       height="15.081"
       rx="3"
       ry="3"
       fill="url(#linearGradient1265)"
       stroke-width="1.2274"
       id="rect14"
       style="fill:none;fill-opacity:1" />
    <rect
       x=".01215"
       y=".0060174"
       width="16.924"
       height="16.927"
       fill="none"
       opacity=".15"
       stroke-width="1.052"
       id="rect16" />
    <path
       inkscape:connector-curvature="0"
       id="path4193-6-9-2-0"
       d="M 0.3013075,0.8845357 V 11.38264 c 0,2.563047 2.1027768,4.665824 4.6658241,4.665824 h 6.9987364 c 2.563047,0 4.665824,-2.102777 4.665824,-4.665824 V 5.5503599 c 0,-1.9188312 -1.580538,-3.4993682 -3.499368,-3.4993682 -0.896415,0 -1.710815,0.3543256 -2.332912,0.9175591 C 10.177314,2.4053173 9.3629145,2.0509917 8.4664998,2.0509917 c -1.9188311,0 -3.4993682,1.580537 -3.4993682,3.4993682 V 11.38264 H 7.3000438 V 5.5503599 c 0,-0.6580322 0.5084239,-1.1664561 1.166456,-1.1664561 0.658032,0 1.166456,0.5084239 1.166456,1.1664561 V 11.38264 H 11.965868 V 5.5503599 c 0,-0.6580322 0.508424,-1.1664561 1.166456,-1.1664561 0.658032,0 1.166456,0.5084239 1.166456,1.1664561 V 11.38264 c 0,1.302248 -1.030664,2.332912 -2.332912,2.332912 H 4.9671316 c -1.3022482,0 -2.332912,-1.030664 -2.332912,-2.332912 V 0.8845357 Z"
       style="color:#000000;font-style:normal;font-variant:normal;font-weight:normal;font-stretch:normal;font-size:medium;line-height:normal;font-family:sans-serif;font-variant-ligatures:normal;font-variant-position:normal;font-variant-caps:normal;font-variant-numeric:normal;font-variant-alternates:normal;font-feature-settings:normal;text-indent:0;text-align:start;text-decoration:none;text-decoration-line:none;text-decoration-style:solid;text-decoration-color:#000000;letter-spacing:normal;word-spacing:normal;text-transform:none;writing-mode:lr-tb;direction:ltr;text-orientation:mixed;dominant-baseline:auto;baseline-shift:baseline;text-anchor:start;white-space:normal;shape-padding:0;clip-rule:nonzero;display:inline;overflow:visible;visibility:visible;isolation:auto;mix-blend-mode:normal;color-interpolation:sRGB;color-interpolation-filters:linearRGB;solid-color:#000000;solid-opacity:1;vector-effect:none;fill:none;fill-opacity:1;fill-rule:nonzero;stroke:url(#linearGradient1267);stroke-width:0.602615;stroke-linecap:butt;stroke-linejoin:miter;stroke-miterlimit:4;stroke-dasharray:none;stroke-dashoffset:0;stroke-opacity:1;color-rendering:auto;image-rendering:auto;shape-rendering:auto;text-rendering:auto;enable-background:accumulate" />
  </g>
</svg>

<?xml version="1.0" encoding="UTF-8"?>
<svg width="64" height="64" version="1.1" viewBox="0 0 16.933 16.933" xmlns="http://www.w3.org/2000/svg" xmlns:xlink="http://www.w3.org/1999/xlink">
 <defs>
  <linearGradient id="linearGradient1267" x1="194.13" x2="194.01" y1="99.575" y2="316.11" gradientTransform="matrix(.072904 0 0 .072904 -5.531 -6.6974)" gradientUnits="userSpaceOnUse">
   <stop stop-color="#8fbcbb" offset="0"/>
   <stop stop-color="#97b67c" offset="1"/>
  </linearGradient>
 </defs>
 <g stroke-linecap="round" stroke-linejoin="round">
  <path d="m0.30131 0.88454v10.498c0 2.563 2.1028 4.6658 4.6658 4.6658h6.9987c2.563 0 4.6658-2.1028 4.6658-4.6658v-5.8323c0-1.9188-1.5805-3.4994-3.4994-3.4994-0.89642 0-1.7108 0.35433-2.3329 0.91756-0.6221-0.56323-1.4365-0.91756-2.3329-0.91756-1.9188 0-3.4994 1.5805-3.4994 3.4994v5.8323h2.3329v-5.8323c0-0.65803 0.50842-1.1665 1.1665-1.1665 0.65803 0 1.1665 0.50842 1.1665 1.1665v5.8323h2.3329v-5.8323c0-0.65803 0.50842-1.1665 1.1665-1.1665s1.1665 0.50842 1.1665 1.1665v5.8323c0 1.3022-1.0307 2.3329-2.3329 2.3329h-6.9987c-1.3022 0-2.3329-1.0307-2.3329-2.3329v-10.498z" color="#000000" color-rendering="auto" dominant-baseline="auto" fill="none" image-rendering="auto" shape-rendering="auto" solid-color="#000000" stroke="url(#linearGradient1267)" stroke-linecap="butt" stroke-linejoin="miter" stroke-width=".60262" style="font-feature-settings:normal;font-variant-alternates:normal;font-variant-caps:normal;font-variant-ligatures:normal;font-variant-numeric:normal;font-variant-position:normal;isolation:auto;mix-blend-mode:normal;shape-padding:0;text-decoration-color:#000000;text-decoration-line:none;text-decoration-style:solid;text-indent:0;text-orientation:mixed;text-transform:none;white-space:normal"/>
 </g>
</svg>
